svgs/thin/lock-open.svg

<svg xmlns="http://www.w3.org/2000/svg" viewBox="0 0 576 512"><!--! Font Awesome Pro 6.6.0 by @fontawesome - https://fontawesome.com License - https://fontawesome.com/license (Commercial License) Copyright 2024 Fonticons, Inc. --><path d="M336 128c0-61.9 50.1-112 112-112s112 50.1 112 112l0 88c0 4.4 3.6 8 8 8s8-3.6 8-8l0-88C576 57.3 518.7 0 448 0S320 57.3 320 128l0 64L64 192c-35.3 0-64 28.7-64 64L0 448c0 35.3 28.7 64 64 64l320 0c35.3 0 64-28.7 64-64l0-192c0-35.3-28.7-64-64-64l-48 0 0-64zm-16 80l16 0 48 0c26.5 0 48 21.5 48 48l0 192c0 26.5-21.5 48-48 48L64 496c-26.5 0-48-21.5-48-48l0-192c0-26.5 21.5-48 48-48l256 0z"/></svg>

<svg xmlns="http://www.w3.org/2000/svg" viewBox="0 0 576 512"><!--! Font Awesome Pro 6.4.0 by @fontawesome - https://fontawesome.com License - https://fontawesome.com/license (Commercial License) Copyright 2023 Fonticons, Inc. --><path d="M336 128c0-61.9 50.1-112 112-112s112 50.1 112 112v88c0 4.4 3.6 8 8 8s8-3.6 8-8V128C576 57.3 518.7 0 448 0S320 57.3 320 128v64H64c-35.3 0-64 28.7-64 64V448c0 35.3 28.7 64 64 64H384c35.3 0 64-28.7 64-64V256c0-35.3-28.7-64-64-64H336V128zm-16 80h16 48c26.5 0 48 21.5 48 48V448c0 26.5-21.5 48-48 48H64c-26.5 0-48-21.5-48-48V256c0-26.5 21.5-48 48-48H320z"/></svg>
